X: 31240
T: Paddy Fahey's
R: reel
M: 4/4
K: Edorian
G2 FA GEEG|F2 DD ADFA|G2 FA GBef|dBAB fBFA|
G2 FA GEEG|F2 DD ADFA|G2 FA GBef|dBAF E3f||
g2eg fedf|edBA FE E2|GBeg fedf|edBA Bee^d|
e2 ge fdBc|d3e dBAF|G2 FA GBef|dBAB fBFA||

